src/assets/socialmedia/linkedin.svg

<svg width="21" height="20" viewBox="0 0 21 20" fill="none" xmlns="http://www.w3.org/2000/svg">
<path d="M17.5585 1.66662H3.4418C3.28311 1.66442 3.12555 1.69349 2.9781 1.75219C2.83066 1.81089 2.69622 1.89805 2.58246 2.00871C2.46871 2.11937 2.37786 2.25136 2.31512 2.39713C2.25238 2.5429 2.21897 2.6996 2.2168 2.85829V17.1416C2.21897 17.3003 2.25238 17.457 2.31512 17.6028C2.37786 17.7486 2.46871 17.8805 2.58246 17.9912C2.69622 18.1019 2.83066 18.189 2.9781 18.2477C3.12555 18.3064 3.28311 18.3355 3.4418 18.3333H17.5585C17.7171 18.3355 17.8747 18.3064 18.0222 18.2477C18.1696 18.189 18.304 18.1019 18.4178 17.9912C18.5316 17.8805 18.6224 17.7486 18.6851 17.6028C18.7479 17.457 18.7813 17.3003 18.7835 17.1416V2.85829C18.7813 2.6996 18.7479 2.5429 18.6851 2.39713C18.6224 2.25136 18.5316 2.11937 18.4178 2.00871C18.304 1.89805 18.1696 1.81089 18.0222 1.75219C17.8747 1.69349 17.7171 1.66442 17.5585 1.66662ZM7.2418 15.6166H4.7418V8.11662H7.2418V15.6166ZM5.9918 7.06662C5.64702 7.06662 5.31636 6.92966 5.07256 6.68586C4.82876 6.44206 4.6918 6.1114 4.6918 5.76662C4.6918 5.42184 4.82876 5.09118 5.07256 4.84738C5.31636 4.60358 5.64702 4.46662 5.9918 4.46662C6.17488 4.44586 6.36028 4.464 6.53586 4.51986C6.71144 4.57571 6.87325 4.66803 7.01068 4.79076C7.14811 4.91348 7.25807 5.06385 7.33336 5.23202C7.40864 5.40019 7.44756 5.58237 7.44756 5.76662C7.44756 5.95087 7.40864 6.13305 7.33336 6.30122C7.25807 6.46939 7.14811 6.61976 7.01068 6.74249C6.87325 6.86521 6.71144 6.95753 6.53586 7.01338C6.36028 7.06924 6.17488 7.08738 5.9918 7.06662ZM16.2585 15.6166H13.7585V11.5916C13.7585 10.5833 13.4001 9.92495 12.4918 9.92495C12.2107 9.92701 11.937 10.0152 11.7075 10.1776C11.478 10.34 11.3039 10.5688 11.2085 10.8333C11.1433 11.0292 11.115 11.2354 11.1251 11.4416V15.6083H8.62513C8.62513 15.6083 8.62513 8.79162 8.62513 8.10829H11.1251V9.16662C11.3522 8.77254 11.6826 8.44789 12.0805 8.22762C12.4784 8.00736 12.9289 7.89983 13.3835 7.91662C15.0501 7.91662 16.2585 8.99162 16.2585 11.3V15.6166Z" fill="white"/>
</svg>

<svg xmlns="http://www.w3.org/2000/svg" width="21" height="20" fill="none" xmlns:v="https://vecta.io/nano"><path d="M17.559 1.667H3.442a1.21 1.21 0 0 0-.859.342 1.21 1.21 0 0 0-.366.85v14.283a1.21 1.21 0 0 0 .366.85 1.21 1.21 0 0 0 .859.342h14.117a1.21 1.21 0 0 0 .859-.342c.114-.111.205-.243.267-.388a1.21 1.21 0 0 0 .098-.461V2.858a1.21 1.21 0 0 0-.098-.461c-.063-.146-.153-.278-.267-.388a1.21 1.21 0 0 0-.859-.342zM7.242 15.617h-2.5v-7.5h2.5v7.5zm-1.25-8.55a1.3 1.3 0 0 1-1.3-1.3 1.3 1.3 0 0 1 1.3-1.3 1.31 1.31 0 0 1 1.019.324 1.31 1.31 0 0 1 .437.976 1.31 1.31 0 0 1-.437.976 1.31 1.31 0 0 1-1.019.324zm10.267 8.55h-2.5v-4.025c0-1.008-.358-1.667-1.267-1.667-.281.002-.555.09-.784.253s-.404.391-.499.656a1.67 1.67 0 0 0-.083.608v4.167h-2.5v-7.5h2.5v1.058a2.5 2.5 0 0 1 2.258-1.25c1.667 0 2.875 1.075 2.875 3.383v4.317z" fill="#fff"/></svg>
